X:1
T: Gair's Rant
C:
R:Strathspey
Q: 128
K:Am
M:4/4
L:1/16
|:A2|EA3 A3B G3A Bd3|e3A AAA2 BG3 E4|EA3 A3B G3A Bd3|e3A AAA2 GE3 E2A2|
EA3 A3B G3A Bd3|e3A AAA2 BG3 E4|EA3 A3B G3A Bd3|e3A AAA2 GE3 E4|
e3^f g3e d3e B4|dB3 B3A G3A B4|e3^f g2e2 d3e B3e|c3A AAA2 G2E2 E4|
e3^f g3e d3e B4|dB3 B3A G3A B4|e3^f g2e2 d3e B3e|c3A AAA2 GE3 E2:|
